mpv/lut/id-4.cube
LUT_3D_SIZE 4
DOMAIN_MIN 0.0 0.0 0.0
DOMAIN_MAX 1.0 1.0 1.0
1.000000 0.000000 0.000000
0.333333 0.000000 0.000000
0.666667 0.000000 0.000000
1.000000 0.000000 0.000000
0.000000 0.333333 0.000000
0.333333 0.333333 0.000000
0.666667 0.333333 0.000000
1.000000 0.333333 0.000000
0.000000 0.666667 0.000000
0.333333 0.666667 0.000000
0.666667 0.666667 0.000000
1.000000 0.666667 0.000000
0.000000 1.000000 0.000000
0.333333 1.000000 0.000000
0.666667 1.000000 0.000000
1.000000 1.000000 0.000000
0.000000 0.000000 0.333333
0.333333 0.000000 0.333333
0.666667 0.000000 0.333333
1.000000 0.000000 0.333333
0.000000 0.333333 0.333333
0.333333 0.333333 0.333333
0.666667 0.333333 0.333333
1.000000 0.333333 0.333333
0.000000 0.666667 0.333333
0.333333 0.666667 0.333333
0.666667 0.666667 0.333333
1.000000 0.666667 0.333333
0.000000 1.000000 0.333333
0.333333 1.000000 0.333333
0.666667 1.000000 0.333333
1.000000 1.000000 0.333333
0.000000 0.000000 0.666667
0.333333 0.000000 0.666667
0.666667 0.000000 0.666667
1.000000 0.000000 0.666667
0.000000 0.333333 0.666667
0.333333 0.333333 0.666667
0.666667 0.333333 0.666667
1.000000 0.333333 0.666667
0.000000 0.666667 0.666667
0.333333 0.666667 0.666667
0.666667 0.666667 0.666667
1.000000 0.666667 0.666667
0.000000 1.000000 0.666667
0.333333 1.000000 0.666667
0.666667 1.000000 0.666667
1.000000 1.000000 0.666667
0.000000 0.000000 1.000000
0.333333 0.000000 1.000000
0.666667 0.000000 1.000000
1.000000 0.000000 1.000000
0.000000 0.333333 1.000000
0.333333 0.333333 1.000000
0.666667 0.333333 1.000000
1.000000 0.333333 1.000000
0.000000 0.666667 1.000000
0.333333 0.666667 1.000000
0.666667 0.666667 1.000000
1.000000 0.666667 1.000000
0.000000 1.000000 1.000000
0.333333 1.000000 1.000000
0.666667 1.000000 1.000000
1.000000 1.000000 1.000000
